dist/svg/yoda.svg

<!-- Generated by Trend Micro Style Portal -->
<svg version="1.1" xmlns="http://www.w3.org/2000/svg" width="16" height="16" viewBox="0 0 16 16">
  <title>yoda</title>
  <path fill="rgb(34,34,34)" d="M4.1 7.9c-1.5 0.4-2.7 1.6-3.1 3.1l-1 4h16l-1-4c-0.4-1.5-1.6-2.7-3.1-3.1-0.3-0.1-0.6-0.2-0.8-0.4 0.3-0.4 0.6-1 0.7-1.5v0c1 0.1 2-0.4 2.5-1.2 0 0 0.4-1 1.2-1.2 0.5-0.1 0.3-0.4 0.3-0.4-0.3-0.3-0.8-0.3-1.8 0-0.8 0.1-1.7 0.1-2.4-0.2-0.7-1.6-2-3-3.6-3s-2.9 1.4-3.6 3c-0.8 0.3-1.6 0.3-2.4 0.2-1-0.3-1.5-0.3-1.9-0.1 0 0-0.2 0.2 0.3 0.4 0.8 0.2 1.2 1.2 1.2 1.2 0.5 0.9 1.5 1.4 2.5 1.3v0c0.1 0.6 0.4 1.1 0.8 1.5-0.3 0.2-0.5 0.4-0.8 0.4z"></path>
</svg>

<svg width="16" height="16" viewBox="0 0 16 16" fill="rgb(34, 34, 34)" xmlns="http://www.w3.org/2000/svg"><title>yoda</title><path d="M4.1 7.9C2.6 8.3 1.4 9.5 1 11L0 15H16L15 11C14.6 9.5 13.4 8.3 11.9 7.9C11.6 7.8 11.3 7.7 11.1 7.5C11.4 7.1 11.7 6.5 11.8 6C12.8 6.1 13.8 5.6 14.3 4.8C14.3 4.8 14.7 3.8 15.5 3.6C16 3.5 15.8 3.2 15.8 3.2C15.5 2.9 15 2.9 14 3.2C13.2 3.3 12.3 3.3 11.6 3C10.9 1.4 9.6 0 8 0C6.4 0 5.1 1.4 4.4 3C3.6 3.3 2.8 3.3 2 3.2C1 2.9 0.5 2.9 0.1 3.1C0.1 3.1 -0.1 3.3 0.4 3.5C1.2 3.7 1.6 4.7 1.6 4.7C2.1 5.6 3.1 6.1 4.1 6C4.2 6.6 4.5 7.1 4.9 7.5C4.6 7.7 4.4 7.9 4.1 7.9Z" fill="rgb(34, 34, 34)" fill-opacity="1.00"/></svg>
